X:1
T:Anne Knudsdotter
T:Anne Knudsdotter
T:Christian Haslerud
T: Claus Pavels Riis
C:Christian Haslerud
Z:Claus Pavels Riis
%%score [ 1 2 3 4 ]
L:1/8
Q:1/4=70
M:2/4
K:A
V:1 treble nm="Soprano"
V:2 treble nm="Alto"
V:3 treble-8 nm="Tenor"
V:4 bass nm="Bass"
V:1
"^Raskt"!mf! E | C3/2 D/ E F | E2 A B | c3/2 A/ c d | e z d2 | c3 B | A2 c2 | B4- | B2 z E | %9
w: Eg|hei- ter An- ne|Knuds- dot- ter|Ka- ri er mi|Mor og|Jon han|er min|Bror|_ me|
 C3/2 D/ E F | E2 A B | c3/2 B/ c d | e z f2 | e2 e2 | ^d2 d2 | e4- | e2 z!p! c | %17
w: bur up- paa ein|Plass som at|in- gen skul- de|tru at|no- kon|kun- de|bu|_ og|
 (3(ed) c!<(! (3(ed) c!<)! | f2 f2 |!p! B B e d | c2 c!f! c | (3(ed) c (3(ed) c | f2 f2 | %23
w: Plas- * sen hei- * ter|U- ren|Lu- ren Him- mel-|tu- ren og|Plas- * sen hei- * ter|U- ren|
!p! B B e d | c2 c z |!f! A B c d |!p! c A (BG) |!f! A B c d |!p! c A (BG) |!pp! c z B z | A2 z2 |] %31
w: Lu- ren Him- mel-|tu- ren|Stein- røys Stein- røys|Svelt- i hel _|Stein- røys Stein- røys|Svelt- i- hel _|Svelt- i-|hel.|
V:2
!mf! C | A,3/2 B,/ C D | C2 C D | E3/2 E/ A A | A z A2 | A3 G | E2 A2 | G4- | G2 z B, | %9
w: Eg|hei- ter An- ne|Knuds- dot- ter|Ka- ri er mi|Mor og|Jon han|er min|Bror|_ me|
 A,3/2 B,/ C D | C2 E E | E3/2 E/ E E | E z A2 | G2 G2 | F2 F2 | E4- | E2 z!p! E | %17
w: bur up- paa ein|Plass som at|in- gen skul- de|tru at|no- kon|kun- de|bu|_ og|
 (3:2:2A2 A!<(! (3:2:2A2 A!<)! | A2 A2 |!p! G G G G | A2 E!f! E | (3:2:2E2 E (3:2:2A2 E | F2 A2 | %23
w: Plas- sen hei- ter|U- ren|Lu- ren Him- mel-|tu- ren og|Plas- sen hei- ter|U- ren|
!p! G G E E | E2 E z |!f! E E E A |!p! A A (GE) |!f! E A A B |!p! A A (GE) |!pp! E z D z | C2 z2 |] %31
w: Lu- ren Him- mel-|tu- ren|Stein- røys Stein- røys|Svelt- i hel _|Stein- røys Stein- røys|Svelt- i- hel _|Svelt- i-|hel.|
V:3
!mf! A | A3/2 A/ A A | A2 A A | A3/2 c/ e e | e z f2 | e3 e | e2 e2 | e4- | e2 z G | E3/2 E/ E E | %10
w: Eg|hei- ter An- ne|Knuds- dot- ter|Ka- ri er mi|Mor og|Jon han|er min|Bror|_ me|bur up- paa ein|
 E2 c B | A3/2 c/ A B | c z c2 | B2 B2 | A2 A2 | G4- | G2 z!p! A | (3(cB) A!<(! (3(cB) A!<)! | %18
w: Plass som at|in- gen skul- de|tru at|no- kon|kun- de|bu|_ og|Plas- * sen hei- * ter|
 d2 d2 |!p! d d c B | A2 A!f! A | (3:2:2A2 A (3:2:2A2 A | A2 d2 |!p! d d c B | B2 A z | %25
w: U- ren|Lu- ren Him- mel-|tu- ren og|Plas- sen hei- ter|U- ren|Lu- ren Him- mel-|tu- ren|
!f! c B A d |!p! e c (eB) |!f! c d e e |!p! e e (dB) |!pp! A z G z | A2 z2 |] %31
w: Stein- røys Stein- røys|Svelt- i hel _|Stein- røys Stein- røys|Svelt- i- hel _|Svelt- i-|hel.|
V:4
!mf! A, | A,3/2 A,/ A, A, | A,2 A, A, | A,3/2 A,/ A,, B,, | C, z D,2 | E,3 D, | C,2 A,,2 | E,4- | %8
w: Eg|hei- ter An- ne|Knuds- dot- ter|Ka- ri er mi|Mor og|Jon han|er min|Bror|
 E,2 z E, | A,,3/2 A,,/ A,, A,, | A,,2 A, G, | A,3/2 A,/ A, A, | A, z A,,2 | B,,2 B,,2 | %14
w: _ me|bur up- paa ein|Plass som at|in- gen skul- de|tru at|no- kon|
 B,,2 B,,2 | E,4- | E,2 z z | z4 | z4 | z4 | z2 z!f! A,, | (3(C,B,,) A,, (3(C,B,,) A,, | D,2 D,2 | %23
w: kun- de|bu|_||||og|Plas- * sen hei- * ter|U- ren|
!p! E, E, E, E, | A,2 A, z |!f! A, G, A, F, |!p! E, E, D,2 |!f! C, B,, A,, G,, |!p! A,, C, E,2 | %29
w: Lu- ren Him- mel-|tu- ren|Stein- røys Stein- røys|Svelt- i hel|Stein- røys Stein- røys|Svelt- i- hel|
!pp! A, z E, z | A,,2 z2 |] %31
w: Svelt- i-|hel.|

